resources/haticons/SVG/zorin.svg

<svg height="24" width="24" xmlns="http://www.w3.org/2000/svg"><path d="m4 18.944 1.995 3.456h12.01l1.995-3.456zm20-6.944-2.013 3.488h-12.771l12.771-6.976zm-24 0 2.013-3.488h12.771l-12.771 6.976zm4-6.944 1.995-3.456h12.01l1.995 3.456z"/></svg>

<svg height="24" width="24" xmlns="http://www.w3.org/2000/svg"><path d="M4 18.944L5.995 22.4h12.01L20 18.944zM24 12l-2.013 3.488H9.216l12.771-6.976zM0 12l2.013-3.488h12.771L2.013 15.488zm4-6.944L5.995 1.6h12.01L20 5.056z"/></svg>
